icons/svg/camera_64.svg

<?xml version="1.0" encoding="UTF-8"?>
<svg width="64px" height="64px" viewBox="0 0 64 64" version="1.1" xmlns="http://www.w3.org/2000/svg" xmlns:xlink="http://www.w3.org/1999/xlink">
    <!-- Generator: Sketch 57.1 (83088) - https://sketch.com -->
    <title>camera_64</title>
    <desc>Created with Sketch.</desc>
    <g id="Icons-Webex" stroke="none" stroke-width="1" fill="none" fill-rule="evenodd">
        <g id="activities/camera_64" fill="#171B1F">
            <path d="M62,43.6104 C62,44.3264 61.544,44.7684 61.116,44.9434 C60.582,45.1624 60.014,45.0464 59.603,44.6284 L48,32.8464 L48,31.1534 L59.603,19.3714 C60.013,18.9544 60.581,18.8364 61.116,19.0574 C61.544,19.2324 62,19.6734 62,20.3894 L62,43.6104 Z M47,46.7214 C47,49.6324 44.632,52.0004 41.722,52.0004 L7.278,52.0004 C4.368,52.0004 2,49.6324 2,46.7214 L2,17.2784 C2,14.3674 4.368,12.0004 7.278,12.0004 L41.722,12.0004 C44.632,12.0004 47,14.3674 47,17.2784 L47,46.7214 Z M61.496,18.1314 C60.581,17.7594 59.585,17.9644 58.89,18.6704 L48,29.7274 L48,17.2784 C48,13.8164 45.184,11.0004 41.722,11.0004 L7.278,11.0004 C3.816,11.0004 1,13.8164 1,17.2784 L1,46.7214 C1,50.1834 3.816,53.0004 7.278,53.0004 L41.722,53.0004 C45.184,53.0004 48,50.1834 48,46.7214 L48,34.2724 L58.89,45.3294 C59.355,45.8024 59.958,46.0514 60.579,46.0514 C60.885,46.0514 61.195,45.9914 61.496,45.8684 C62.424,45.4884 63,44.6234 63,43.6104 L63,20.3894 C63,19.3774 62.424,18.5114 61.496,18.1314 L61.496,18.1314 Z" id="fill"></path>
        </g>
    </g>
</svg>

<svg width="64" height="64" xmlns="http://www.w3.org/2000/svg"><path d="M62 43.61c0 .716-.456 1.158-.884 1.333a1.349 1.349 0 01-1.513-.315L48 32.846v-1.693l11.603-11.782c.41-.417.978-.535 1.513-.314.428.175.884.616.884 1.332V43.61zm-15 3.111a5.285 5.285 0 01-5.278 5.28H7.278A5.285 5.285 0 012 46.72V17.278A5.284 5.284 0 017.278 12h34.444A5.284 5.284 0 0147 17.278v29.443zm14.496-28.59a2.352 2.352 0 00-2.606.54L48 29.726V17.278A6.285 6.285 0 0041.722 11H7.278A6.285 6.285 0 001 17.278v29.443a6.286 6.286 0 006.278 6.28h34.444A6.286 6.286 0 0048 46.72V34.272L58.89 45.33a2.359 2.359 0 002.606.54c.928-.38 1.504-1.246 1.504-2.259V20.39a2.396 2.396 0 00-1.504-2.259z" fill="#171B1F" fill-rule="evenodd"/></svg>
